X:445
T: Gurgling of the Churn
T: Gliogar an Mheadair
T: Deirdre's Fancy
T: Dublin Streets
S: B.Breathnach: "Ceol Rince na hEireann" II/101
Z: B.Black
L: 1/8
M: 9/8
R: slipjig
K: Edor
G2B E2B BAG|F2A D2F AFD|G2B E2B BAG|d2B AFD E3 :|
B2e e2f gfe|f2d d2f afd|B2e e2f gfe|d2B AFD E3 :|

